public/assets/BigLogo.svg

<svg xmlns="http://www.w3.org/2000/svg" xmlns:xlink="http://www.w3.org/1999/xlink" viewBox="0 0 3514 2252" fill="none" xmlns:v="https://vecta.io/nano"><style><![CDATA[.B{color-interpolation-filters:sRGB}.C{flood-opacity:0}.D{fill:#ffac00}.E{fill-rule:evenodd}]]></style><g fill="#06540e" class="E"><use xlink:href="#G"/><use xlink:href="#H"/></g><g filter="url(#A)" class="E"><use xlink:href="#G" fill="#4ee95d"/></g><g filter="url(#B)" class="E"><use xlink:href="#H" fill="#4ee95d"/></g><g filter="url(#C)"><path d="M1140.06 1947.41c-129.95 0-241.526-22.97-334.725-68.91-93.2-45.95-169.334-105.67-228.404-179.18-57.758-73.51-100.419-153.59-127.985-240.22-27.566-86.64-41.349-169.99-41.349-250.06v-43.32c0-89.26 13.783-177.212 41.349-263.848 28.878-86.636 72.853-165.396 131.923-236.28s133.892-127.329 224.466-169.334c91.886-43.318 200.185-64.977 324.885-64.977 129.95 0 242.84 23.628 338.67 70.884 97.14 45.943 174.58 111.577 232.34 196.9 57.76 84.011 92.54 182.461 104.36 295.35h-281.57c-10.5-65.633-34.13-120.765-70.88-165.396-35.45-45.943-80.73-80.073-135.87-102.388-55.13-23.628-117.48-35.442-187.05-35.442-70.88 0-133.892 12.47-189.024 37.411-55.132 23.628-101.076 57.757-137.83 102.388s-64.977 97.137-84.667 157.52c-18.378 60.382-27.566 127.332-27.566 200.842 0 70.88 9.188 136.51 27.566 196.9 19.69 60.38 48.568 113.54 86.636 159.48 38.067 44.64 84.667 79.42 139.799 104.36 56.446 24.94 121.426 37.41 194.926 37.41 107.64 0 198.22-26.25 271.73-78.76 74.82-53.82 120.11-128.64 135.86-224.46h281.56c-13.12 102.38-47.91 196.24-104.35 281.56-56.45 85.33-133.89 153.59-232.34 204.78s-215.94 76.79-352.46 76.79z" fill="#ffac01"/></g><g filter="url(#D)" class="D"><path d="M1113.43 1848.5l-32.65 94.52 25.86 8.93 26.81-5.48-20.02-97.97zm256.03-52.34l20.03 97.97h0l-20.03-97.97zm28.57-11.96l55.74 83.02h0l-55.74-83.02zm233.4-156.7l55.74 83.02 23.56-15.82 11.74-25.84-91.04-41.36zm-827.151 220.02l276.501 95.5 65.29-189.04-276.498-95.5-65.293 189.04zm329.171 98.95l256.04-52.34-40.06-195.94-256.03 52.33 40.05 195.95zm320.32-79.25l233.4-156.7-111.49-166.04-233.39 156.7 111.48 166.04zm268.7-198.36l98.35-216.5-182.09-82.72-98.35 216.5 182.09 82.72zm-332.98 225.27c22.97-4.69 44.81-13.83 64.28-26.91l-111.48-166.04c2.16-1.46 4.59-2.47 7.14-2.99l40.06 195.94z"/></g><g filter="url(#E)" class="D"><path d="M1242.93 559.999l31.54-78.93-20.17-8.061-21.56 2.604 10.19 84.387zm-341.127 41.195l10.19 84.386h0l-10.19-84.386zM535.43 1312l-84.608-8.15-3.131 32.48 19.414 26.23L535.43 1312zm319.476-688.033l60.018 60.19-60.018-60.19zM574.821 903.254l-60.018-60.189-21.656 21.594-2.934 30.442 84.608 8.153zm967.109-223.755l72.13-44.968-14.73-23.628-25.85-10.334-31.55 78.93zm-309.19-203.887l-341.128 41.195 20.381 168.773 341.127-41.194-20.38-168.774zM467.105 1362.56l206.066 278.45 136.65-101.12-206.066-278.45-136.65 101.12zm327.782-798.782L514.803 843.065l120.036 120.379 280.085-279.287-120.037-120.379zM490.213 895.101l-39.391 408.749 169.216 16.3 39.391-408.742-169.216-16.307zm1263.347-36.814l-139.5-223.756-144.26 89.936 139.49 223.756 144.27-89.936zm-180.08-257.718l-299.01-119.5-63.09 157.86 299.01 119.5 63.09-157.86zm-681.868-83.762c-36.582 4.417-70.632 20.952-96.725 46.971l120.037 120.379c-.791.789-1.823 1.29-2.931 1.423l-20.381-168.773z"/></g><path d="M2106.2 1417.96c-27.47 0-50.8-5.07-70-15.2-18.93-10.4-33.33-25.07-43.2-44s-14.8-41.33-14.8-67.2v-173.2h65.6v175.6c0 12.8 2.4 24 7.2 33.6 5.07 9.33 12.13 16.53 21.2 21.6 9.33 5.07 20.67 7.6 34 7.6 13.6 0 24.93-2.53 34-7.6 9.33-5.07 16.4-12.27 21.2-21.6s7.2-20.53 7.2-33.6v-175.6h65.6v173.2c0 25.87-4.93 48.27-14.8 67.2s-24.27 33.6-43.2 44c-18.93 10.13-42.27 15.2-70 15.2zm245.37-7.6v-242.8h65.6v242.8h-65.6zm-82-234.8v-57.2h230v57.2h-230zm272.06 234.8v-292h65.6v292h-65.6zm132.01 0v-292h64v292h-64zm56 0v-54.4h127.6v54.4h-127.6zm0-121.2v-54.4h118.4v54.4h-118.4zm0-116.4v-54.4h124.8v54.4h-124.8zm-557.04 741.6v-292h65.6v292h-65.6zm-188.8 0v-292h65.6v292h-65.6zm54-118v-57.6h146.4v57.6h-146.4zm238.32 118l96.4-292h106l100 292h-68l-80.8-246.8 20.8 8.4h-51.6l21.6-8.4-78.8 246.8h-65.6zm73.2-72.4l20-54.4h114.4l20.4 54.4h-154.8zm388.79 80c-26.4 0-49.06-4.53-68-13.6-18.93-9.33-34.4-21.47-46.4-36.4-12-15.2-20.93-31.47-26.8-48.8-5.6-17.6-8.4-34.67-8.4-51.2v-8.8c0-18.13 2.94-36 8.8-53.6 5.87-17.87 14.8-34 26.8-48.4 12.27-14.4 27.6-25.87 46-34.4 18.67-8.8 40.67-13.2 66-13.2 26.4 0 49.74 4.93 70 14.8 20.27 9.87 36.4 23.6 48.4 41.2 12.27 17.33 19.47 37.73 21.6 61.2h-66c-1.86-11.73-6.13-21.73-12.8-30-6.66-8.27-15.33-14.67-26-19.2-10.4-4.53-22.13-6.8-35.2-6.8-13.06 0-24.66 2.27-34.8 6.8-10.13 4.53-18.66 10.93-25.6 19.2-6.66 8.27-11.86 18.13-15.6 29.6-3.46 11.2-5.2 23.73-5.2 37.6 0 13.6 1.74 26.13 5.2 37.6 3.74 11.2 9.07 21.07 16 29.6 7.2 8.27 16 14.67 26.4 19.2 10.4 4.27 22.27 6.4 35.6 6.4 20.27 0 37.34-4.93 51.2-14.8 14.14-9.87 22.67-23.47 25.6-40.8h65.6c-2.4 21.33-9.6 40.93-21.6 58.8-11.73 17.6-27.86 31.73-48.4 42.4-20.26 10.4-44.4 15.6-72.4 15.6zm377.92-7.6l-100.8-136.4h-40.4l122.4-155.6h75.2l-110 139.6-.8-28.4 133.6 180.8h-79.2zm-192 0v-292h65.6v292h-65.6z" class="D"/><g filter="url(#F)" class="D"><path d="M2106.2 1417.6c-27.47 0-50.8-5.07-70-15.2-18.93-10.4-33.33-25.07-43.2-44s-14.8-41.33-14.8-67.2V1118h65.6v175.6c0 12.8 2.4 24 7.2 33.6 5.07 9.33 12.13 16.53 21.2 21.6 9.33 5.07 20.67 7.6 34 7.6 13.6 0 24.93-2.53 34-7.6 9.33-5.07 16.4-12.27 21.2-21.6s7.2-20.53 7.2-33.6V1118h65.6v173.2c0 25.87-4.93 48.27-14.8 67.2s-24.27 33.6-43.2 44c-18.93 10.13-42.27 15.2-70 15.2zm245.37-7.6v-242.8h65.6V1410h-65.6zm-82-234.8V1118h230v57.2h-230zm272.06 234.8v-292h65.6v292h-65.6zm132.01 0v-292h64v292h-64zm56 0v-54.4h127.6v54.4h-127.6zm0-121.2v-54.4h118.4v54.4h-118.4zm0-116.4V1118h124.8v54.4h-124.8zM2172.6 1914v-292h65.6v292h-65.6zm-188.8 0v-292h65.6v292h-65.6zm54-118v-57.6h146.4v57.6h-146.4zm238.32 118l96.4-292h106l100 292h-68l-80.8-246.8 20.8 8.4h-51.6l21.6-8.4-78.8 246.8h-65.6zm73.2-72.4l20-54.4h114.4l20.4 54.4h-154.8zm388.79 80c-26.4 0-49.06-4.53-68-13.6-18.93-9.33-34.4-21.47-46.4-36.4-12-15.2-20.93-31.47-26.8-48.8-5.6-17.6-8.4-34.67-8.4-51.2v-8.8c0-18.13 2.94-36 8.8-53.6 5.87-17.87 14.8-34 26.8-48.4 12.27-14.4 27.6-25.87 46-34.4 18.67-8.8 40.67-13.2 66-13.2 26.4 0 49.74 4.93 70 14.8 20.27 9.87 36.4 23.6 48.4 41.2 12.27 17.33 19.47 37.73 21.6 61.2h-66c-1.86-11.73-6.13-21.73-12.8-30-6.66-8.27-15.33-14.67-26-19.2-10.4-4.53-22.13-6.8-35.2-6.8-13.06 0-24.66 2.27-34.8 6.8-10.13 4.53-18.66 10.93-25.6 19.2-6.66 8.27-11.86 18.13-15.6 29.6-3.46 11.2-5.2 23.73-5.2 37.6 0 13.6 1.74 26.13 5.2 37.6 3.74 11.2 9.07 21.07 16 29.6 7.2 8.27 16 14.67 26.4 19.2 10.4 4.27 22.27 6.4 35.6 6.4 20.27 0 37.34-4.93 51.2-14.8 14.14-9.87 22.67-23.47 25.6-40.8h65.6c-2.4 21.33-9.6 40.93-21.6 58.8-11.73 17.6-27.86 31.73-48.4 42.4-20.26 10.4-44.4 15.6-72.4 15.6zm377.92-7.6l-100.8-136.4h-40.4l122.4-155.6h75.2l-110 139.6-.8-28.4 133.6 180.8h-79.2zm-192 0v-292h65.6v292h-65.6z"/></g><defs><filter id="A" x=".188" y="281.697" width="629.375" height="413.857" filterUnits="userSpaceOnUse" class="B"><feFlood class="C"/><feBlend in="SourceGraphic"/><feGaussianBlur stdDeviation="45"/></filter><filter id="B" x="399.125" y="84.488" width="326.445" height="526.933" filterUnits="userSpaceOnUse" class="B"><feFlood class="C"/><feBlend in="SourceGraphic"/><feGaussianBlur stdDeviation="45"/></filter><filter id="C" x="403.594" y="431.281" width="1429.62" height="1524.13" filterUnits="userSpaceOnUse" class="B"><feFlood result="A" class="C"/><feColorMatrix in="SourceAlpha" values="0 0 0 0 0 0 0 0 0 0 0 0 0 0 0 0 0 0 127 0" result="B"/><feOffset dy="4"/><feGaussianBlur stdDeviation="2"/><feComposite in2="B" operator="out"/><feColorMatrix values="0 0 0 0 1 0 0 0 0 0.898 0 0 0 0 0.7 0 0 0 0.25 0"/><feBlend in2="A"/><feBlend in="SourceGraphic"/></filter><filter id="D" x="504.281" y="1069.64" width="1616.54" height="1182.31" filterUnits="userSpaceOnUse" class="B"><feFlood class="C"/><feBlend in="SourceGraphic"/><feGaussianBlur stdDeviation="150"/></filter><filter id="E" x="147.688" y="173.008" width="1905.87" height="1768.01" filterUnits="userSpaceOnUse" class="B"><feFlood class="C"/><feBlend in="SourceGraphic"/><feGaussianBlur stdDeviation="150"/></filter><filter id="F" x="1908.2" y="1048" width="1357.03" height="943.6" filterUnits="userSpaceOnUse" class="B"><feFlood class="C"/><feBlend in="SourceGraphic"/><feGaussianBlur stdDeviation="35"/></filter><path id="G" d="M539.559 576.377C503.09 484.948 421.971 410.43 314.79 382.779c-78.307-20.203-157.253-11.964-224.599 18.06 36.899 94.086 121.37 170.025 232.42 195.702 75.889 17.548 151.809 8.76 216.948-20.164z"/><path id="H" d="M600.066 521.421c-49.067-30.761-88.933-88.048-104.355-158.98s-2.94-139.596 28.922-187.952c49.067 30.761 88.933 88.047 104.355 158.98s2.941 139.596-28.922 187.952z"/></defs></svg>

<svg viewBox="0 0 3514 2252" fill="none" xmlns="http://www.w3.org/2000/svg">
<path fill-rule="evenodd" clip-rule="evenodd" d="M539.559 576.377C503.09 484.948 421.971 410.43 314.79 382.779C236.483 362.576 157.537 370.815 90.1912 400.839C127.09 494.925 211.561 570.864 322.611 596.541C398.5 614.089 474.42 605.301 539.559 576.377Z" fill="#06540E"/>
<path fill-rule="evenodd" clip-rule="evenodd" d="M600.066 521.421C550.999 490.66 511.133 433.373 495.711 362.441C480.29 291.511 492.771 222.845 524.633 174.489C573.7 205.25 613.566 262.536 628.988 333.469C644.409 404.399 631.929 473.065 600.066 521.421Z" fill="#06540E"/>
<g filter="url(#filter0_f_581_3)">
<path fill-rule="evenodd" clip-rule="evenodd" d="M539.559 576.377C503.09 484.948 421.971 410.43 314.79 382.779C236.483 362.576 157.537 370.815 90.1912 400.839C127.09 494.925 211.561 570.864 322.611 596.541C398.5 614.089 474.42 605.301 539.559 576.377Z" fill="#4EE95D"/>
</g>
<g filter="url(#filter1_f_581_3)">
<path fill-rule="evenodd" clip-rule="evenodd" d="M600.066 521.421C550.999 490.66 511.133 433.373 495.711 362.441C480.29 291.511 492.771 222.845 524.633 174.489C573.7 205.25 613.566 262.536 628.988 333.469C644.409 404.399 631.929 473.065 600.066 521.421Z" fill="#4EE95D"/>
</g>
<g filter="url(#filter2_d_581_3)">
<path d="M1140.06 1947.41C1010.11 1947.41 898.534 1924.44 805.335 1878.5C712.135 1832.55 636.001 1772.83 576.931 1699.32C519.173 1625.81 476.512 1545.73 448.946 1459.1C421.38 1372.46 407.597 1289.11 407.597 1209.04V1165.72C407.597 1076.46 421.38 988.508 448.946 901.872C477.824 815.236 521.799 736.476 580.869 665.592C639.939 594.708 714.761 538.263 805.335 496.258C897.221 452.94 1005.52 431.281 1130.22 431.281C1260.17 431.281 1373.06 454.909 1468.89 502.165C1566.03 548.108 1643.47 613.742 1701.23 699.065C1758.99 783.076 1793.77 881.526 1805.59 994.415H1524.02C1513.52 928.782 1489.89 873.65 1453.14 829.019C1417.69 783.076 1372.41 748.946 1317.27 726.631C1262.14 703.003 1199.79 691.189 1130.22 691.189C1059.34 691.189 996.328 703.659 941.196 728.6C886.064 752.228 840.12 786.357 803.366 830.988C766.611 875.619 738.389 928.125 718.699 988.508C700.321 1048.89 691.133 1115.84 691.133 1189.35C691.133 1260.23 700.321 1325.86 718.699 1386.25C738.389 1446.63 767.267 1499.79 805.335 1545.73C843.402 1590.37 890.002 1625.15 945.134 1650.09C1001.58 1675.03 1066.56 1687.5 1140.06 1687.5C1247.7 1687.5 1338.28 1661.25 1411.79 1608.74C1486.61 1554.92 1531.9 1480.1 1547.65 1384.28H1829.21C1816.09 1486.66 1781.3 1580.52 1724.86 1665.84C1668.41 1751.17 1590.97 1819.43 1492.52 1870.62C1394.07 1921.81 1276.58 1947.41 1140.06 1947.41Z" fill="#FFAC01"/>
</g>
<g filter="url(#filter3_f_581_3)">
<path d="M1113.43 1848.5L1080.78 1943.02L1106.64 1951.95L1133.45 1946.47L1113.43 1848.5ZM1369.46 1796.16L1389.49 1894.13L1389.49 1894.13L1369.46 1796.16ZM1398.03 1784.2L1453.77 1867.22L1453.77 1867.22L1398.03 1784.2ZM1631.43 1627.5L1687.17 1710.52L1710.73 1694.7L1722.47 1668.86L1631.43 1627.5ZM804.279 1847.52L1080.78 1943.02L1146.07 1753.98L869.572 1658.48L804.279 1847.52ZM1133.45 1946.47L1389.49 1894.13L1349.43 1698.19L1093.4 1750.52L1133.45 1946.47ZM1453.77 1867.22L1687.17 1710.52L1575.68 1544.48L1342.29 1701.18L1453.77 1867.22ZM1722.47 1668.86L1820.82 1452.36L1638.73 1369.64L1540.38 1586.14L1722.47 1668.86ZM1389.49 1894.13C1412.46 1889.44 1434.3 1880.3 1453.77 1867.22L1342.29 1701.18C1344.45 1699.72 1346.88 1698.71 1349.43 1698.19L1389.49 1894.13Z" fill="#FFAC00"/>
</g>
<g filter="url(#filter4_f_581_3)">
<path d="M1242.93 559.999L1274.47 481.069L1254.3 473.008L1232.74 475.612L1242.93 559.999ZM901.803 601.194L911.993 685.58L911.993 685.58L901.803 601.194ZM535.43 1312L450.822 1303.85L447.691 1336.33L467.105 1362.56L535.43 1312ZM854.906 623.967L914.924 684.157L854.906 623.967ZM574.821 903.254L514.803 843.065L493.147 864.659L490.213 895.101L574.821 903.254ZM1541.93 679.499L1614.06 634.531L1599.33 610.903L1573.48 600.569L1541.93 679.499ZM1232.74 475.612L891.612 516.807L911.993 685.58L1253.12 644.386L1232.74 475.612ZM467.105 1362.56L673.171 1641.01L809.821 1539.89L603.755 1261.44L467.105 1362.56ZM794.887 563.778L514.803 843.065L634.839 963.444L914.924 684.157L794.887 563.778ZM490.213 895.101L450.822 1303.85L620.038 1320.15L659.429 911.408L490.213 895.101ZM1753.56 858.287L1614.06 634.531L1469.8 724.467L1609.29 948.223L1753.56 858.287ZM1573.48 600.569L1274.47 481.069L1211.38 638.929L1510.39 758.429L1573.48 600.569ZM891.612 516.807C855.03 521.224 820.98 537.759 794.887 563.778L914.924 684.157C914.133 684.946 913.101 685.447 911.993 685.58L891.612 516.807Z" fill="#FFAC00"/>
</g>
<path d="M2106.2 1417.96C2078.73 1417.96 2055.4 1412.89 2036.2 1402.76C2017.27 1392.36 2002.87 1377.69 1993 1358.76C1983.13 1339.83 1978.2 1317.43 1978.2 1291.56V1118.36H2043.8V1293.96C2043.8 1306.76 2046.2 1317.96 2051 1327.56C2056.07 1336.89 2063.13 1344.09 2072.2 1349.16C2081.53 1354.23 2092.87 1356.76 2106.2 1356.76C2119.8 1356.76 2131.13 1354.23 2140.2 1349.16C2149.53 1344.09 2156.6 1336.89 2161.4 1327.56C2166.2 1318.23 2168.6 1307.03 2168.6 1293.96V1118.36H2234.2V1291.56C2234.2 1317.43 2229.27 1339.83 2219.4 1358.76C2209.53 1377.69 2195.13 1392.36 2176.2 1402.76C2157.27 1412.89 2133.93 1417.96 2106.2 1417.96ZM2351.57 1410.36V1167.56H2417.17V1410.36H2351.57ZM2269.57 1175.56V1118.36H2499.57V1175.56H2269.57ZM2541.63 1410.36V1118.36H2607.23V1410.36H2541.63ZM2673.64 1410.36V1118.36H2737.64V1410.36H2673.64ZM2729.64 1410.36V1355.96H2857.24V1410.36H2729.64ZM2729.64 1289.16V1234.76H2848.04V1289.16H2729.64ZM2729.64 1172.76V1118.36H2854.44V1172.76H2729.64ZM2172.6 1914.36V1622.36H2238.2V1914.36H2172.6ZM1983.8 1914.36V1622.36H2049.4V1914.36H1983.8ZM2037.8 1796.36V1738.76H2184.2V1796.36H2037.8ZM2276.12 1914.36L2372.52 1622.36H2478.52L2578.52 1914.36H2510.52L2429.72 1667.56L2450.52 1675.96H2398.92L2420.52 1667.56L2341.72 1914.36H2276.12ZM2349.32 1841.96L2369.32 1787.56H2483.72L2504.12 1841.96H2349.32ZM2738.11 1921.96C2711.71 1921.96 2689.05 1917.43 2670.11 1908.36C2651.18 1899.03 2635.71 1886.89 2623.71 1871.96C2611.71 1856.76 2602.78 1840.49 2596.91 1823.16C2591.31 1805.56 2588.51 1788.49 2588.51 1771.96V1763.16C2588.51 1745.03 2591.45 1727.16 2597.31 1709.56C2603.18 1691.69 2612.11 1675.56 2624.11 1661.16C2636.38 1646.76 2651.71 1635.29 2670.11 1626.76C2688.78 1617.96 2710.78 1613.56 2736.11 1613.56C2762.51 1613.56 2785.85 1618.49 2806.11 1628.36C2826.38 1638.23 2842.51 1651.96 2854.51 1669.56C2866.78 1686.89 2873.98 1707.29 2876.11 1730.76H2810.11C2808.25 1719.03 2803.98 1709.03 2797.31 1700.76C2790.65 1692.49 2781.98 1686.09 2771.31 1681.56C2760.91 1677.03 2749.18 1674.76 2736.11 1674.76C2723.05 1674.76 2711.45 1677.03 2701.31 1681.56C2691.18 1686.09 2682.65 1692.49 2675.71 1700.76C2669.05 1709.03 2663.85 1718.89 2660.11 1730.36C2656.65 1741.56 2654.91 1754.09 2654.91 1767.96C2654.91 1781.56 2656.65 1794.09 2660.11 1805.56C2663.85 1816.76 2669.18 1826.63 2676.11 1835.16C2683.31 1843.43 2692.11 1849.83 2702.51 1854.36C2712.91 1858.63 2724.78 1860.76 2738.11 1860.76C2758.38 1860.76 2775.45 1855.83 2789.31 1845.96C2803.45 1836.09 2811.98 1822.49 2814.91 1805.16H2880.51C2878.11 1826.49 2870.91 1846.09 2858.91 1863.96C2847.18 1881.56 2831.05 1895.69 2810.51 1906.36C2790.25 1916.76 2766.11 1921.96 2738.11 1921.96ZM3116.03 1914.36L3015.23 1777.96H2974.83L3097.23 1622.36H3172.43L3062.43 1761.96L3061.63 1733.56L3195.23 1914.36H3116.03ZM2924.03 1914.36V1622.36H2989.63V1914.36H2924.03Z" fill="#FFAC00"/>
<g filter="url(#filter5_f_581_3)">
<path d="M2106.2 1417.6C2078.73 1417.6 2055.4 1412.53 2036.2 1402.4C2017.27 1392 2002.87 1377.33 1993 1358.4C1983.13 1339.47 1978.2 1317.07 1978.2 1291.2V1118H2043.8V1293.6C2043.8 1306.4 2046.2 1317.6 2051 1327.2C2056.07 1336.53 2063.13 1343.73 2072.2 1348.8C2081.53 1353.87 2092.87 1356.4 2106.2 1356.4C2119.8 1356.4 2131.13 1353.87 2140.2 1348.8C2149.53 1343.73 2156.6 1336.53 2161.4 1327.2C2166.2 1317.87 2168.6 1306.67 2168.6 1293.6V1118H2234.2V1291.2C2234.2 1317.07 2229.27 1339.47 2219.4 1358.4C2209.53 1377.33 2195.13 1392 2176.2 1402.4C2157.27 1412.53 2133.93 1417.6 2106.2 1417.6ZM2351.57 1410V1167.2H2417.17V1410H2351.57ZM2269.57 1175.2V1118H2499.57V1175.2H2269.57ZM2541.63 1410V1118H2607.23V1410H2541.63ZM2673.64 1410V1118H2737.64V1410H2673.64ZM2729.64 1410V1355.6H2857.24V1410H2729.64ZM2729.64 1288.8V1234.4H2848.04V1288.8H2729.64ZM2729.64 1172.4V1118H2854.44V1172.4H2729.64ZM2172.6 1914V1622H2238.2V1914H2172.6ZM1983.8 1914V1622H2049.4V1914H1983.8ZM2037.8 1796V1738.4H2184.2V1796H2037.8ZM2276.12 1914L2372.52 1622H2478.52L2578.52 1914H2510.52L2429.72 1667.2L2450.52 1675.6H2398.92L2420.52 1667.2L2341.72 1914H2276.12ZM2349.32 1841.6L2369.32 1787.2H2483.72L2504.12 1841.6H2349.32ZM2738.11 1921.6C2711.71 1921.6 2689.05 1917.07 2670.11 1908C2651.18 1898.67 2635.71 1886.53 2623.71 1871.6C2611.71 1856.4 2602.78 1840.13 2596.91 1822.8C2591.31 1805.2 2588.51 1788.13 2588.51 1771.6V1762.8C2588.51 1744.67 2591.45 1726.8 2597.31 1709.2C2603.18 1691.33 2612.11 1675.2 2624.11 1660.8C2636.38 1646.4 2651.71 1634.93 2670.11 1626.4C2688.78 1617.6 2710.78 1613.2 2736.11 1613.2C2762.51 1613.2 2785.85 1618.13 2806.11 1628C2826.38 1637.87 2842.51 1651.6 2854.51 1669.2C2866.78 1686.53 2873.98 1706.93 2876.11 1730.4H2810.11C2808.25 1718.67 2803.98 1708.67 2797.31 1700.4C2790.65 1692.13 2781.98 1685.73 2771.31 1681.2C2760.91 1676.67 2749.18 1674.4 2736.11 1674.4C2723.05 1674.4 2711.45 1676.67 2701.31 1681.2C2691.18 1685.73 2682.65 1692.13 2675.71 1700.4C2669.05 1708.67 2663.85 1718.53 2660.11 1730C2656.65 1741.2 2654.91 1753.73 2654.91 1767.6C2654.91 1781.2 2656.65 1793.73 2660.11 1805.2C2663.85 1816.4 2669.18 1826.27 2676.11 1834.8C2683.31 1843.07 2692.11 1849.47 2702.51 1854C2712.91 1858.27 2724.78 1860.4 2738.11 1860.4C2758.38 1860.4 2775.45 1855.47 2789.31 1845.6C2803.45 1835.73 2811.98 1822.13 2814.91 1804.8H2880.51C2878.11 1826.13 2870.91 1845.73 2858.91 1863.6C2847.18 1881.2 2831.05 1895.33 2810.51 1906C2790.25 1916.4 2766.11 1921.6 2738.11 1921.6ZM3116.03 1914L3015.23 1777.6H2974.83L3097.23 1622H3172.43L3062.43 1761.6L3061.63 1733.2L3195.23 1914H3116.03ZM2924.03 1914V1622H2989.63V1914H2924.03Z" fill="#FFAC00"/>
</g>
<defs>
<filter id="filter0_f_581_3" x="0.1875" y="281.697" width="629.375" height="413.857" filterUnits="userSpaceOnUse" color-interpolation-filters="sRGB">
<feFlood flood-opacity="0" result="BackgroundImageFix"/>
<feBlend mode="normal" in="SourceGraphic" in2="BackgroundImageFix" result="shape"/>
<feGaussianBlur stdDeviation="45" result="effect1_foregroundBlur_581_3"/>
</filter>
<filter id="filter1_f_581_3" x="399.125" y="84.4883" width="326.445" height="526.933" filterUnits="userSpaceOnUse" color-interpolation-filters="sRGB">
<feFlood flood-opacity="0" result="BackgroundImageFix"/>
<feBlend mode="normal" in="SourceGraphic" in2="BackgroundImageFix" result="shape"/>
<feGaussianBlur stdDeviation="45" result="effect1_foregroundBlur_581_3"/>
</filter>
<filter id="filter2_d_581_3" x="403.594" y="431.281" width="1429.62" height="1524.13" filterUnits="userSpaceOnUse" color-interpolation-filters="sRGB">
<feFlood flood-opacity="0" result="BackgroundImageFix"/>
<feColorMatrix in="SourceAlpha" type="matrix" values="0 0 0 0 0 0 0 0 0 0 0 0 0 0 0 0 0 0 127 0" result="hardAlpha"/>
<feOffset dy="4"/>
<feGaussianBlur stdDeviation="2"/>
<feComposite in2="hardAlpha" operator="out"/>
<feColorMatrix type="matrix" values="0 0 0 0 1 0 0 0 0 0.898 0 0 0 0 0.7 0 0 0 0.25 0"/>
<feBlend mode="normal" in2="BackgroundImageFix" result="effect1_dropShadow_581_3"/>
<feBlend mode="normal" in="SourceGraphic" in2="effect1_dropShadow_581_3" result="shape"/>
</filter>
<filter id="filter3_f_581_3" x="504.281" y="1069.64" width="1616.54" height="1182.31" filterUnits="userSpaceOnUse" color-interpolation-filters="sRGB">
<feFlood flood-opacity="0" result="BackgroundImageFix"/>
<feBlend mode="normal" in="SourceGraphic" in2="BackgroundImageFix" result="shape"/>
<feGaussianBlur stdDeviation="150" result="effect1_foregroundBlur_581_3"/>
</filter>
<filter id="filter4_f_581_3" x="147.688" y="173.008" width="1905.87" height="1768.01" filterUnits="userSpaceOnUse" color-interpolation-filters="sRGB">
<feFlood flood-opacity="0" result="BackgroundImageFix"/>
<feBlend mode="normal" in="SourceGraphic" in2="BackgroundImageFix" result="shape"/>
<feGaussianBlur stdDeviation="150" result="effect1_foregroundBlur_581_3"/>
</filter>
<filter id="filter5_f_581_3" x="1908.2" y="1048" width="1357.03" height="943.6" filterUnits="userSpaceOnUse" color-interpolation-filters="sRGB">
<feFlood flood-opacity="0" result="BackgroundImageFix"/>
<feBlend mode="normal" in="SourceGraphic" in2="BackgroundImageFix" result="shape"/>
<feGaussianBlur stdDeviation="35" result="effect1_foregroundBlur_581_3"/>
</filter>
</defs>
</svg>
